X:1
T: Barrack Hill
C:
R:Jig
Q:180
K:Am
M:6/8
L:1/16
c2|e4A2 a4f2|e4d2 B2c2d2|e4A2 A4B2|G4A2 B2c2d2|e4A2 A4f2|e4d2 B2c2d2|e4d2 g4B2|A6 A4c2|
e4d2 e2^f2g2|a4c'2 g4e2|d4e2 d4B2|d4e2 d2c2B2|e4d2 e2^f2g2|a4b2 g4e2|d4B2 g4B2|A6 A4c2|
e4d2 e2^f2g2|a4c'2 g4e2|d4e2 d4B2|d4e2 d2c2B2|e4d2 e4f2|g4a2 c'4a2|g4e2 d4B2|A4a2 a2g2^f2|
e4A2 a4f2|e4d2 B2c2d2|e4A2 A4B2|G4A2 B2c2d2|e4A2 A4f2|e4d2 B2c2d2|e4d2 g4B2|A6 A4||
